X: 49
T: Valse Gisele
C: Yvon Cuillerer
M:3/4
R:
D: Green Fields of the Valley- Danny O'Connell
L:1/8
Z:added by Alf 
K:D
g fe|d2 A2 G2| F3F DF|E2 F2 G2| B3e dB|
d2 c3 B| c2 d2 e2| a6-|a3 g fe|
d2 A2 G2| F3F ED|E2 F2 G2| B3e dB|
d2 c3 B| c2 f2 e2| d6-|!fine!d3 e dc||
B2 F2 Bc|d2 b2 fg|a2 g3a|g3e ce|
AB cd ef|g2 e2 aa|g2 f3g|f3e dc|
B2 F2 (3B=c^c|d2 c2 B2| A2 G2 F2| G3B AG|
F2 ^A2 ce|d2 c2 d2| B3c d2| c3 !D.C.!||
